src/public/img/icons/settings-white.svg

<svg width="24" height="24" viewBox="0 0 24 24" fill="none" xmlns="http://www.w3.org/2000/svg">
<path d="M13.1191 5.61336C13.0508 5.11856 12.6279 4.75 12.1285 4.75H11.8715C11.3721 4.75 10.9492 5.11856 10.8809 5.61336L10.7938 6.24511C10.7382 6.64815 10.4403 6.96897 10.0622 7.11922C10.006 7.14156 9.95021 7.16484 9.89497 7.18905C9.52217 7.3524 9.08438 7.3384 8.75876 7.09419L8.45119 6.86351C8.05307 6.56492 7.49597 6.60451 7.14408 6.9564L6.95641 7.14408C6.60452 7.49597 6.56492 8.05306 6.86351 8.45118L7.09419 8.75876C7.33841 9.08437 7.3524 9.52216 7.18905 9.89497C7.16484 9.95021 7.14156 10.006 7.11922 10.0622C6.96897 10.4403 6.64815 10.7382 6.24511 10.7938L5.61336 10.8809C5.11856 10.9492 4.75 11.372 4.75 11.8715V12.1285C4.75 12.6279 5.11856 13.0508 5.61336 13.1191L6.24511 13.2062C6.64815 13.2618 6.96897 13.5597 7.11922 13.9378C7.14156 13.994 7.16484 14.0498 7.18905 14.105C7.3524 14.4778 7.3384 14.9156 7.09419 15.2412L6.86351 15.5488C6.56492 15.9469 6.60451 16.504 6.9564 16.8559L7.14408 17.0436C7.49597 17.3955 8.05306 17.4351 8.45118 17.1365L8.75876 16.9058C9.08437 16.6616 9.52216 16.6476 9.89496 16.811C9.95021 16.8352 10.006 16.8584 10.0622 16.8808C10.4403 17.031 10.7382 17.3519 10.7938 17.7549L10.8809 18.3866C10.9492 18.8814 11.3721 19.25 11.8715 19.25H12.1285C12.6279 19.25 13.0508 18.8814 13.1191 18.3866L13.2062 17.7549C13.2618 17.3519 13.5597 17.031 13.9378 16.8808C13.994 16.8584 14.0498 16.8352 14.105 16.8109C14.4778 16.6476 14.9156 16.6616 15.2412 16.9058L15.5488 17.1365C15.9469 17.4351 16.504 17.3955 16.8559 17.0436L17.0436 16.8559C17.3955 16.504 17.4351 15.9469 17.1365 15.5488L16.9058 15.2412C16.6616 14.9156 16.6476 14.4778 16.811 14.105C16.8352 14.0498 16.8584 13.994 16.8808 13.9378C17.031 13.5597 17.3519 13.2618 17.7549 13.2062L18.3866 13.1191C18.8814 13.0508 19.25 12.6279 19.25 12.1285V11.8715C19.25 11.3721 18.8814 10.9492 18.3866 10.8809L17.7549 10.7938C17.3519 10.7382 17.031 10.4403 16.8808 10.0622C16.8584 10.006 16.8352 9.95021 16.8109 9.89496C16.6476 9.52216 16.6616 9.08437 16.9058 8.75875L17.1365 8.4512C17.4351 8.05308 17.3955 7.49599 17.0436 7.1441L16.8559 6.95642C16.504 6.60453 15.9469 6.56494 15.5488 6.86353L15.2412 7.09419C14.9156 7.33841 14.4778 7.3524 14.105 7.18905C14.0498 7.16484 13.994 7.14156 13.9378 7.11922C13.5597 6.96897 13.2618 6.64815 13.2062 6.24511L13.1191 5.61336Z" stroke="white" stroke-width="1.5" stroke-linecap="round" stroke-linejoin="round"/>
<path d="M13.25 12C13.25 12.6904 12.6904 13.25 12 13.25C11.3096 13.25 10.75 12.6904 10.75 12C10.75 11.3096 11.3096 10.75 12 10.75C12.6904 10.75 13.25 11.3096 13.25 12Z" stroke="white" stroke-width="1.5" stroke-linecap="round" stroke-linejoin="round"/>
</svg>

<svg xmlns="http://www.w3.org/2000/svg" width="24" height="24" fill="none">
  <path stroke="#fff" stroke-linecap="round" stroke-linejoin="round" stroke-width="1.5" d="M13.12 5.613a1 1 0 0 0-.991-.863h-.258a1 1 0 0 0-.99.863l-.087.632c-.056.403-.354.724-.732.874a5.225 5.225 0 0 0-.167.07c-.373.163-.81.15-1.136-.095l-.308-.23a1 1 0 0 0-1.307.092l-.188.188a1 1 0 0 0-.092 1.307l.23.308c.244.325.258.763.095 1.136a5.225 5.225 0 0 0-.07.167c-.15.378-.47.676-.874.732l-.632.087a1 1 0 0 0-.863.99v.258a1 1 0 0 0 .863.99l.632.087c.403.056.724.354.874.732l.07.167c.163.373.15.81-.095 1.136l-.23.308a1 1 0 0 0 .092 1.307l.188.188a1 1 0 0 0 1.307.093l.308-.231c.325-.244.763-.258 1.136-.095a5.4 5.4 0 0 0 .167.07c.378.15.676.47.732.874l.087.632a1 1 0 0 0 .99.863h.258a1 1 0 0 0 .99-.863l.087-.632c.056-.403.354-.724.732-.874a5.12 5.12 0 0 0 .167-.07c.373-.163.81-.15 1.136.095l.308.23a1 1 0 0 0 1.307-.092l.188-.188a1 1 0 0 0 .093-1.307l-.231-.308c-.244-.325-.258-.763-.095-1.136l.07-.167c.15-.378.47-.676.874-.732l.632-.087a1 1 0 0 0 .863-.99v-.258a1 1 0 0 0-.863-.99l-.632-.087c-.403-.056-.724-.354-.874-.732a5.168 5.168 0 0 0-.07-.167c-.163-.373-.15-.81.095-1.136l.23-.308a1 1 0 0 0-.092-1.307l-.188-.188a1 1 0 0 0-1.307-.092l-.308.23c-.325.244-.763.258-1.136.095a5.185 5.185 0 0 0-.167-.07c-.378-.15-.676-.47-.732-.874l-.087-.632Z"/>
  <path stroke="#fff" stroke-linecap="round" stroke-linejoin="round" stroke-width="1.5" d="M13.25 12a1.25 1.25 0 1 1-2.5 0 1.25 1.25 0 0 1 2.5 0Z"/>
</svg>
